symbolic/64x64/apps/bastion.svg

<svg width="64" height="64" version="1.1" xmlns="http://www.w3.org/2000/svg">
 <path d="M 30,6 C 16.192881,6 5,17.192881 5,31 5.0038,36.729956 6.975833,42.284706 10.585938,46.734375 L 7,51 19,58 21.771484,54.576172 C 24.415096,55.508762 27.196732,55.990085 30,56 c 0.638158,-0.0023 1.275995,-0.02899 1.912109,-0.08008 L 34,60 45,56 43.515625,52.03125 c 3.574561,-2.300724 6.503417,-5.474939 8.509766,-9.222656 L 56,44 59,32 54.998047,30.933594 C 54.978003,26.383488 53.716535,21.925131 51.349609,18.039062 L 54,15 44,7 42.171875,9.173828 C 38.451401,7.095772 34.261483,6.003246 30,6 Z" style="opacity:.2"/>
 <path d="M 30,5 C 16.192881,5 5,16.192881 5,30 5.00381,35.729956 6.9758326,41.284706 10.585938,45.734375 L 7,50 19,57 21.771484,53.576172 C 24.415096,54.508762 27.196732,54.990085 30,55 c 0.638158,-0.0023 1.275995,-0.02899 1.912109,-0.08008 L 34,59 45,55 43.515625,51.03125 c 3.574561,-2.300724 6.503417,-5.474939 8.509766,-9.222656 L 56,43 59,31 54.998047,29.933594 C 54.978003,25.383488 53.716535,20.925131 51.349609,17.039062 L 54,14 44,6 42.171875,8.1738281 C 38.451401,6.0957716 34.261483,5.0032464 30,5 Z" style="fill:#38aff1"/>
 <path d="m30 5c-13.807119 0-25 11.192881-25 25 8.24e-5 0.12427 0.0136944 0.246998 0.015625 0.371094 0.334619-13.515715 11.388077-24.371094 24.984375-24.371094 4.261483 0.003246 8.451401 1.0957721 12.171875 3.1738281l1.828125-2.1738281 9.486328 7.589844 0.513672-0.589844-10-8-1.828125 2.1738281c-3.720474-2.078056-7.910392-3.1705821-12.171875-3.1738281zm21.691406 12.646484-0.341797 0.392578c2.366926 3.886069 3.628394 8.344426 3.648438 12.894532l3.767578 1.003906 0.234375-0.9375-4.001953-1.066406c-0.019018-4.317175-1.16861-8.545579-3.306641-12.28711zm-41.5 28.556641-3.191406 3.796875 0.5644531 0.328125 3.0214849-3.59375c-0.139522-0.171969-0.259923-0.356034-0.394532-0.53125zm33.621094 5.623047c-0.10028 0.066613-0.195551 0.139862-0.296875 0.205078l1.154297 3.087891 0.330078-0.119141-1.1875-3.173828z" style="fill:#ffffff;opacity:.2"/>
 <path d="M 29.414062,6.015625 C 15.878405,6.327852 5,17.389307 5,31 5.000963,32.448004 5.129933,33.884303 5.376953,35.294922 7.977947,37.049798 11.71794,38.72628 17,40.210938 V 47 l 7,1 0.755859,-6.042969 c 3.410906,0.547746 6.34493,0.688955 8.863282,0.519531 L 35,48 42,46 40.550781,40.929688 C 48.990802,37.337901 49,29 49,29 49,29 49.014218,6.3383332 29.414062,6.015625 Z" style="opacity:.2"/>
 <path d="M 29.414062 5.015625 C 15.878405 5.327852 5 16.389307 5 30 C 5.0009628 31.448004 5.1299334 32.884303 5.3769531 34.294922 C 7.9779472 36.049798 11.71794 37.72628 17 39.210938 L 17 46 L 24 47 L 24.755859 40.957031 C 28.166765 41.504777 31.100789 41.645986 33.619141 41.476562 L 35 47 L 42 45 L 40.550781 39.929688 C 48.990802 36.337901 49 28 49 28 C 49 28 49.014218 5.3383332 29.414062 5.015625 z " style="fill:#3f3f3f"/>
 <path d="m22.058594 21.185547c-1.31388 0.090578-2.058594 0.814453-2.058594 0.814453s1 7 5 7c5 0 5-2 5-2s0-2-5-5c-1.159401-0.69564-2.153078-0.8688-2.941406-0.814453zm23.941406 3.814453s-2 0-4 1c-1.264911 0.632456-3 3-3 3s1 2 4 2 3-6 3-6z" style="opacity:.2"/>
 <path d="m22.058594 20.185547c-1.31388 0.090578-2.058594 0.814453-2.058594 0.814453s1 7 5 7c5 0 5-2 5-2s0-2-5-5c-1.159401-0.69564-2.153078-0.8688-2.941406-0.814453zm23.941406 3.814453s-2 0-4 1c-1.264911 0.632456-3 3-3 3s1 2 4 2 3-6 3-6z" style="fill:#1bffe1"/>
 <path d="m32 8a3 1.5 0 0 0-3 1.5 3 1.5 0 0 0 3 1.5 3 1.5 0 0 0 3-1.5 3 1.5 0 0 0-3-1.5zm3.5 5a4.5 2.5 0 0 0-4.5 2.5 4.5 2.5 0 0 0 4.5 2.5 4.5 2.5 0 0 0 4.5-2.5 4.5 2.5 0 0 0-4.5-2.5zm1 7a2.5 1.5 0 0 0-2.5 1.5 2.5 1.5 0 0 0 2.5 1.5 2.5 1.5 0 0 0 2.5-1.5 2.5 1.5 0 0 0-2.5-1.5z" style="opacity:.2"/>
 <path d="m32 7a3 1.5 0 0 0-3 1.5 3 1.5 0 0 0 3 1.5 3 1.5 0 0 0 3-1.5 3 1.5 0 0 0-3-1.5zm3.5 5a4.5 2.5 0 0 0-4.5 2.5 4.5 2.5 0 0 0 4.5 2.5 4.5 2.5 0 0 0 4.5-2.5 4.5 2.5 0 0 0-4.5-2.5zm1 7a2.5 1.5 0 0 0-2.5 1.5 2.5 1.5 0 0 0 2.5 1.5 2.5 1.5 0 0 0 2.5-1.5 2.5 1.5 0 0 0-2.5-1.5z" style="fill:#df563d"/>
 <path d="M 29.414062 5.015625 C 15.878405 5.327852 5 16.389307 5 30 C 5.0000796 30.119683 5.013802 30.237907 5.015625 30.357422 C 5.3527961 17.043857 16.092831 6.3229058 29.414062 6.015625 C 47.526445 6.3138376 48.874047 25.468624 48.976562 28.408203 C 48.995556 28.1536 49 28 49 28 C 49 28 49.014218 5.3383332 29.414062 5.015625 z M 40.800781 40.806641 C 40.713797 40.845486 40.639624 40.891879 40.550781 40.929688 L 41.736328 45.076172 L 42 45 L 40.800781 40.806641 z " style="fill:#ffffff;opacity:.1"/>
 <path d="m22.058594 20.185547c-1.31388 0.090578-2.058594 0.814453-2.058594 0.814453s0.079111 0.42559 0.171875 0.861328c0.285587-0.21362 0.930449-0.609857 1.886719-0.675781 0.788328-0.054347 1.782005 0.118813 2.941406 0.814453 3.478781 2.087268 4.519786 3.670809 4.841797 4.453125 0.141367-0.258139 0.158203-0.453125 0.158203-0.453125s0-2-5-5c-1.159401-0.69564-2.153078-0.8688-2.941406-0.814453zm23.941406 3.814453s-2 0-4 1c-1.264911 0.632456-3 3-3 3s0.123162 0.225682 0.376953 0.517578c0.574496-0.722443 1.711365-2.061737 2.623047-2.517578 1.92049-0.960245 3.795649-0.996529 3.945312-0.998047 0.051755-0.594164 0.054688-1.001953 0.054688-1.001953z" style="fill:#ffffff;opacity:.2"/>
 <path d="m32 7a3 1.5 0 0 0-3 1.5 3 1.5 0 0 0 0.175781 0.5 3 1.5 0 0 1 2.824219-1 3 1.5 0 0 1 2.824219 1 3 1.5 0 0 0 0.175781-0.5 3 1.5 0 0 0-3-1.5zm3.5 5a4.5 2.5 0 0 0-4.5 2.5 4.5 2.5 0 0 0 0.09375 0.505859 4.5 2.5 0 0 1 4.40625-2.005859 4.5 2.5 0 0 1 4.40625 1.994141 4.5 2.5 0 0 0 0.09375-0.494141 4.5 2.5 0 0 0-4.5-2.5zm1 7a2.5 1.5 0 0 0-2.5 1.5 2.5 1.5 0 0 0 0.146484 0.5 2.5 1.5 0 0 1 2.353516-1 2.5 1.5 0 0 1 2.353516 1 2.5 1.5 0 0 0 0.146484-0.5 2.5 1.5 0 0 0-2.5-1.5z" style="fill:#ffffff;opacity:.1"/>
</svg>

<svg width="64" height="64" xmlns="http://www.w3.org/2000/svg"><path d="M30 6C16.193 6 5 17.193 5 31a25 25 0 0 0 5.586 15.734L7 51l12 7 2.771-3.424A25 25 0 0 0 30 56a25.01 25.01 0 0 0 1.912-.08L34 60l11-4-1.484-3.969a25 25 0 0 0 8.51-9.222L56 44l3-12-4.002-1.066a25 25 0 0 0-3.648-12.895L54 15 44 7l-1.828 2.174A25 25 0 0 0 30 6z" style="opacity:.2"/><path d="M30 5C16.193 5 5 16.193 5 30a25 25 0 0 0 5.586 15.734L7 50l12 7 2.771-3.424A25 25 0 0 0 30 55a25.01 25.01 0 0 0 1.912-.08L34 59l11-4-1.484-3.969a25 25 0 0 0 8.51-9.222L56 43l3-12-4.002-1.066a25 25 0 0 0-3.648-12.895L54 14 44 6l-1.828 2.174A25 25 0 0 0 30 5z" style="fill:#38aff1"/><path d="M30 5C16.193 5 5 16.193 5 30c0 .124.014.247.016.371C5.35 16.855 16.404 6 30 6a25 25 0 0 1 12.172 3.174L44 7l9.486 7.59L54 14 44 6l-1.828 2.174A25 25 0 0 0 30 5zm21.691 12.646-.341.393a25 25 0 0 1 3.648 12.895l3.768 1.003L59 31l-4.002-1.066a24.99 24.99 0 0 0-3.307-12.288zm-41.5 28.557L7 50l.564.328 3.022-3.594c-.14-.172-.26-.356-.395-.53zm33.621 5.623c-.1.067-.195.14-.296.205l1.154 3.088L45 55l-1.188-3.174z" style="fill:#fff;opacity:.2"/><path d="M29.414 6.016C15.878 6.328 5 17.389 5 31c.001 1.448.13 2.884.377 4.295 2.6 1.755 6.34 3.431 11.623 4.916V47l7 1 .756-6.043c3.41.548 6.345.689 8.863.52L35 48l7-2-1.45-5.07C48.99 37.338 49 29 49 29s.014-22.662-19.586-22.984z" style="opacity:.2"/><path d="M29.414 5.016C15.878 5.328 5 16.389 5 30c.001 1.448.13 2.884.377 4.295 2.6 1.755 6.34 3.431 11.623 4.916V46l7 1 .756-6.043c3.41.548 6.345.689 8.863.52L35 47l7-2-1.45-5.07C48.99 36.338 49 28 49 28s.014-22.662-19.586-22.984z" style="fill:#3f3f3f"/><path d="M22.059 21.186C20.745 21.276 20 22 20 22s1 7 5 7c5 0 5-2 5-2s0-2-5-5c-1.16-.696-2.153-.869-2.941-.814zM46 25s-2 0-4 1c-1.265.632-3 3-3 3s1 2 4 2 3-6 3-6z" style="opacity:.2"/><path d="M22.059 20.186C20.745 20.276 20 21 20 21s1 7 5 7c5 0 5-2 5-2s0-2-5-5c-1.16-.696-2.153-.869-2.941-.814zM46 24s-2 0-4 1c-1.265.632-3 3-3 3s1 2 4 2 3-6 3-6z" style="fill:#1bffe1"/><path d="M32 8a3 1.5 0 0 0-3 1.5 3 1.5 0 0 0 3 1.5 3 1.5 0 0 0 3-1.5A3 1.5 0 0 0 32 8zm3.5 5a4.5 2.5 0 0 0-4.5 2.5 4.5 2.5 0 0 0 4.5 2.5 4.5 2.5 0 0 0 4.5-2.5 4.5 2.5 0 0 0-4.5-2.5zm1 7a2.5 1.5 0 0 0-2.5 1.5 2.5 1.5 0 0 0 2.5 1.5 2.5 1.5 0 0 0 2.5-1.5 2.5 1.5 0 0 0-2.5-1.5z" style="opacity:.2"/><path d="M32 7a3 1.5 0 0 0-3 1.5 3 1.5 0 0 0 3 1.5 3 1.5 0 0 0 3-1.5A3 1.5 0 0 0 32 7zm3.5 5a4.5 2.5 0 0 0-4.5 2.5 4.5 2.5 0 0 0 4.5 2.5 4.5 2.5 0 0 0 4.5-2.5 4.5 2.5 0 0 0-4.5-2.5zm1 7a2.5 1.5 0 0 0-2.5 1.5 2.5 1.5 0 0 0 2.5 1.5 2.5 1.5 0 0 0 2.5-1.5 2.5 1.5 0 0 0-2.5-1.5z" style="fill:#df563d"/><path d="M29.414 5.016C15.878 5.328 5 16.389 5 30c0 .12.014.238.016.357.337-13.313 11.077-24.034 24.398-24.341 18.112.298 19.46 19.453 19.563 22.392C48.996 28.154 49 28 49 28s.014-22.662-19.586-22.984zm11.387 35.79c-.087.04-.161.086-.25.124l1.185 4.146L42 45l-1.2-4.193z" style="fill:#fff;opacity:.1"/><path d="M22.059 20.186C20.745 20.276 20 21 20 21s.08.426.172.861c.285-.213.93-.61 1.887-.675.788-.055 1.782.118 2.941.814 3.479 2.087 4.52 3.67 4.842 4.453C29.983 26.195 30 26 30 26s0-2-5-5c-1.16-.696-2.153-.869-2.941-.814zM46 24s-2 0-4 1c-1.265.632-3 3-3 3s.123.226.377.518c.574-.723 1.711-2.062 2.623-2.518 1.92-.96 3.796-.997 3.945-.998C45.997 24.408 46 24 46 24z" style="fill:#fff;opacity:.2"/><path d="M32 7a3 1.5 0 0 0-3 1.5 3 1.5 0 0 0 .176.5A3 1.5 0 0 1 32 8a3 1.5 0 0 1 2.824 1A3 1.5 0 0 0 35 8.5 3 1.5 0 0 0 32 7zm3.5 5a4.5 2.5 0 0 0-4.5 2.5 4.5 2.5 0 0 0 .094.506A4.5 2.5 0 0 1 35.5 13a4.5 2.5 0 0 1 4.406 1.994A4.5 2.5 0 0 0 40 14.5a4.5 2.5 0 0 0-4.5-2.5zm1 7a2.5 1.5 0 0 0-2.5 1.5 2.5 1.5 0 0 0 .146.5 2.5 1.5 0 0 1 2.354-1 2.5 1.5 0 0 1 2.354 1 2.5 1.5 0 0 0 .146-.5 2.5 1.5 0 0 0-2.5-1.5z" style="fill:#fff;opacity:.1"/></svg>
